X:1
T:The Harp And The Shamrock
R:hornpipe
M:4/4
L:1/8
K:G
gf|:edAB dBGB|AGEF G2 (3Bcd|e2ed egge|dBAG A2BA|
|GEED E2DE|GGBG A2gf|dege dBGB|1 AGEF G2gf:|2 AGEF G2 (3Bcd|]
|:e2ed eggf|eddB d2BA|GAAG (3Bcd (3efg|dBAG A2BA|
|GE~E2 D3E|GGBG A2gf|dege dBGB|1 AGEF G2 (3Bcd:|2 AGEF G2gf|]